icons/arrow-box-in-left.svg

<svg xmlns="http://www.w3.org/2000/svg" width="24" height="24" viewBox="0 0 24 24">
  <path d="M19,2 L19.1762728,2.00509269 C20.75108,2.09633912 22,3.40231912 22,5 L22,5 L22,7.85714286 L21.9932723,7.97376398 C21.9355072,8.47110267 21.5128358,8.85714286 21,8.85714286 C20.4477153,8.85714286 20,8.40942761 20,7.85714286 L20,7.85714286 L20,5 L19.9932723,4.88337887 C19.9355072,4.38604019 19.5128358,4 19,4 L19,4 L5,4 L4.88337887,4.00672773 C4.38604019,4.06449284 4,4.48716416 4,5 L4,5 L4,19 L4.00672773,19.1166211 C4.06449284,19.6139598 4.48716416,20 5,20 L5,20 L19,20 L19.1166211,19.9932723 C19.6139598,19.9355072 20,19.5128358 20,19 L20,19 L20,16.1428571 L20.0067277,16.026236 C20.0644928,15.5288973 20.4871642,15.1428571 21,15.1428571 C21.5522847,15.1428571 22,15.5905724 22,16.1428571 L22,16.1428571 L22,19 L21.9949073,19.1762728 C21.9036609,20.75108 20.5976809,22 19,22 L19,22 L5,22 L4.82372721,21.9949073 C3.24891996,21.9036609 2,20.5976809 2,19 L2,19 L2,5 L2.00509269,4.82372721 C2.09633912,3.24891996 3.40231912,2 5,2 L5,2 L19,2 Z M13.9497475,7.05025253 C14.3102314,7.41073649 14.337961,7.97796755 14.0329361,8.37025876 L13.9497475,8.46446609 L11.413,11 L21,11 C21.5522847,11 22,11.4477153 22,12 C22,12.5128358 21.6139598,12.9355072 21.1166211,12.9932723 L21,13 L11.415,13 L13.9497475,15.5355339 C14.3402718,15.9260582 14.3402718,16.5592232 13.9497475,16.9497475 C13.5892635,17.3102314 13.0220325,17.337961 12.6297412,17.0329361 L12.5355339,16.9497475 L8.29289322,12.7071068 L8.21968877,12.625449 C8.2173721,12.6225624 8.21507113,12.6196628 8.21278596,12.6167501 L8.29289322,12.7071068 C8.25749917,12.6717127 8.22531295,12.6343256 8.19633458,12.5953066 C8.17849009,12.5711307 8.1617187,12.546275 8.14606743,12.5206602 C8.13860692,12.5086131 8.13149883,12.4963944 8.12467117,12.4840621 C8.11379392,12.4642939 8.10337664,12.4438914 8.09365378,12.4230991 C8.08567905,12.4060985 8.07819642,12.3887956 8.07122549,12.371336 C8.06331574,12.3515792 8.05612249,12.3317977 8.04954668,12.3117364 C8.04472872,12.2968513 8.04009773,12.2814633 8.03584514,12.265993 C8.02983363,12.2444365 8.0246398,12.2227461 8.02016515,12.2007941 C8.01670217,12.1833753 8.01362808,12.165949 8.0110178,12.1484669 C8.00810098,12.1294204 8.00574796,12.1096949 8.00397748,12.0898018 C8.00189498,12.0659949 8.00063489,12.042681 8.00018615,12.0193545 C8.00006128,12.0129086 8,12.0064615 8,12 L8.00016755,11.9816379 C8.00059932,11.9579802 8.0018656,11.9343349 8.00396641,11.9107499 L8,12 C8,11.9493797 8.00376119,11.8996379 8.01101934,11.8510388 C8.01362808,11.834051 8.01670217,11.8166247 8.02024007,11.7992742 C8.0246398,11.7772539 8.02983363,11.7555635 8.03572097,11.7341604 C8.04009773,11.7185367 8.04472872,11.7031487 8.04973809,11.6878575 C8.05612249,11.6682023 8.06331574,11.6484208 8.07110396,11.6289415 C8.07819642,11.6112044 8.08567905,11.5939015 8.09367336,11.5767785 C8.10337664,11.5561086 8.11379392,11.5357061 8.12487577,11.515723 C8.13149883,11.5036056 8.13860692,11.4913869 8.14599545,11.4792912 C8.1617187,11.453725 8.17849009,11.4288693 8.19631351,11.4048407 C8.20175344,11.397397 8.20728448,11.3901576 8.21292769,11.3829777 C8.23766884,11.3515341 8.26442691,11.3213595 8.29289322,11.2928932 L12.5355339,7.05025253 C12.9260582,6.65972824 13.5592232,6.65972824 13.9497475,7.05025253 Z"/>
</svg>

<svg xmlns="http://www.w3.org/2000/svg" viewBox="0 0 24 24">
  <path d="M19 2h.18A3 3 0 0 1 22 5v2.97a1 1 0 0 1-2-.11V4.88A1 1 0 0 0 19 4H4.88A1 1 0 0 0 4 5v14.12A1 1 0 0 0 5 20h14.12a1 1 0 0 0 .88-1v-2.97a1 1 0 0 1 2 .11v3.04A3 3 0 0 1 19 22H4.82A3 3 0 0 1 2 19V4.82A3 3 0 0 1 5 2h14zm-5.05 5.05a1 1 0 0 1 .08 1.32l-.08.1L11.41 11H21a1 1 0 0 1 .12 2H11.4l2.54 2.54a1 1 0 0 1-1.32 1.5l-.1-.09-4.24-4.24-.07-.08v-.01l.07.09A1 1 0 0 1 8 12v-.02a1 1 0 0 1 0-.07V12a1 1 0 0 1 .3-.7l4.24-4.25a1 1 0 0 1 1.41 0z"/>
</svg>
